X:1
T:030 - Noite de Paz
T:Letra: Joseph Mohr (1792-1848)
T:Trad.: William Edwin Entzminger (1859-1930)
T:Música: Franz Xavier Gruber (1787-1863)
M:6/8
L:1/8
Q:1/4=70
K:Cmaj
V:1
"C"(G3/2A/2G) E2z| (G3/2A/2G) E2z| "G7"d2d B2B| "C"c2c G2z | "F"A2A (c3/2B/2)A| "C"(G3/2A/2)G E2z| "F"A2A (c3/2B/2)A| "C"(G3/2A/2)G E2z| "G7"d2d (f3/2d/2)B| "C"(c3 e2)z| (cG)E "G7"(G3/2F/2)D| "C"C6 |]
w: 1.~Tu_ doé paz! Tu_ doa-mor! Dor-mem to-dos em re-dor; Em Be-lém_ Je-sus_ nas-ceu, Rei da paz,_ da ter_rae céu; Nos-so Sal_va-dor_ É_ Je-sus,_ Se-nhor.  
w: 2.~"Gló_riaa Deus! Gló_riaa Deus!" Can-tam an-jos lá nos céus; Bo-as no_vas de_ per-dão, Gra-çaex-cel_sa, sal_va-ção; Pro-va des_tea-mor_ Dá_ o Re_den-tor.
w: 3.~Rei_ da paz, Rei_ dea-mor, Des-te mun-do Cri-a-dor; Vin-de to_dos lhe_ pe-dir Que nos ve_nha con_du-zir. Des-te mun_doa luz_ É o Se-nhor_ Je-sus.
W: 
W: 
W: 1. Tudo é paz! Tudo amor!
W: Dormem todos em redor;
W: Em Belém Jesus nasceu,
W: Rei da paz, da terra e céu;
W: Nosso Salvador
W: É Jesus, Senhor.
W: 
W: 2. "Glória a Deus! Glória a Deus!"
W: Cantam anjos lá nos céus;
W: Boas-novas de perdão,
W: Graça excelsa, salvação;
W: Prova deste amor
W: Dá o Redentor.
W: 
W: 
W: 
W: 3. Rei da paz, Rei de amor,
W: Deste mundo Criador;
W: Vinde todos lhe pedir
W: Que nos venha conduzir.
W: Deste mundo a luz
W: É o Senhor Jesus.
W:         
W: 





%vocalfont Times-Roman 13.0
